!!!COM: Palestrina, Giovanni Perluigi da
!!!OPR: Missa Ecce sacerdos magnus
!!!OMD: Agnus III
!!!OTL: First Section
**kern	**kern	**kern	**kern
*Ibass	*Itenor	*Icalto	*Icant
!Bassus	!Tenor	!Altus	!Cantus
*clefF4	*clefGv2	*clefG2	*clefG2
*k[]	*k[]	*k[]	*k[]
*G:mix	*G:mix	*G:mix	*G:mix
*M2/2	*M2/2	*M2/2	*M2/2
=1	=1	=1	=1
1r	1r	[1d	[1dd
=2	=2	=2	=2
1r	1r	2d]	1dd_
.	.	2e	.
=3	=3	=3	=3
1r	1r	1f	1dd]
=4	=4	=4	=4
1r	[1G	[1g	1b
=5	=5	=5	=5
1r	2G]	2g]	[1dd
.	2A	4f	.
.	.	4e	.
=6	=6	=6	=6
1r	1B	1d	1dd]
=7	=7	=7	=7
1r	[1c	4c	[1ee
.	.	4d	.
.	.	4e	.
.	.	4f	.
=8	=8	=8	=8
1r	2c]	[1g	1ee]
.	4B	.	.
.	4A	.	.
=9	=9	=9	=9
1r	2B	1g]	2dd
.	2c	.	[2cc
=10	=10	=10	=10
[1G	1d	[1g	2cc]
.	.	.	4b
.	.	.	4a
=11	=11	=11	=11
1G_	2r	2g]	1b
.	[2d	4f	.
.	.	4e	.
=12	=12	=12	=12
1G]	2d]	1d	1r
.	2B	.	.
=13	=13	=13	=13
1E	2c	1e	[1g
.	4B	.	.
.	4A	.	.
=14	=14	=14	=14
[1G	2B	1d	2g]
.	2c	.	2a
=15	=15	=15	=15
1G]	1d	1r	1b
=16	=16	=16	=16
[1A	1c	[1e	[1cc
=17	=17	=17	=17
1A]	2r	2e]	2cc]
.	2c	2f#	4b
.	.	.	4a
=18	=18	=18	=18
1G	2d	1g	2.b
.	2e	.	.
.	.	.	4cc
=19	=19	=19	=19
1F	1f	1a	2dd
.	.	.	[2cc
=20	=20	=20	=20
1G	2e	1g	2cc]
.	[2d	.	2b
=21	=21	=21	=21
1D	2d]	2f	2.a
.	[2f	4d	.
.	.	4e	4g
=22	=22	=22	=22
1r	4f]	4f	4a
.	4e	4g	4b
.	2c	[2a	2cc
=23	=23	=23	=23
1r	2d	4a]	2b
.	.	4g	.
.	2e	[2g	2g
=24	=24	=24	=24
1r	1d	2g]	1a
.	.	2f#	.
=25	=25	=25	=25
[1G	1r	2.g	2g
.	.	.	[2b
.	.	4f	.
=26	=26	=26	=26
2G]	1r	1e	2b]
2A	.	.	2cc
=27	=27	=27	=27
1B	1r	1d	1dd
=28	=28	=28	=28
[1c	[1g	2c	[1ee
.	.	4B	.
.	.	4A	.
=29	=29	=29	=29
2c]	2g]	1G	2ee]
4B	[2g	.	4dd
4A	.	.	4cc
=30	=30	=30	=30
2B	1g]	1r	2dd
2c	.	.	[2ee
=31	=31	=31	=31
1d	1f	1r	2ee]
.	.	.	2dd
=32	=32	=32	=32
[1c	1e	1g	2.ee
.	.	.	4dd
=33	=33	=33	=33
1c]	2r	1g	2cc
.	2g	.	4b
.	.	.	4a
=34	=34	=34	=34
1r	1g	2e	2b
.	.	[2c	2cc
=35	=35	=35	=35
1c	2e	4c]	1g
.	.	4d	.
.	2g	[2e	.
=36	=36	=36	=36
1c	2a	4e]	1r
.	.	4f	.
.	[2g	2g	.
=37	=37	=37	=37
1A	4g]	1a	1cc
.	4f	.	.
.	[2f	.	.
=38	=38	=38	=38
1c	2f]	2g	1cc
.	2e	[2a	.
=39	=39	=39	=39
1d	2f	2a]	1a
.	2d	4g	.
.	.	4f	.
=40	=40	=40	=40
1c	2e	2g	1cc
.	[2g	2e	.
=41	=41	=41	=41
2B	4g]	2d	2dd
.	4f	.	.
2c	4e	[2g	[2ee
.	4d	.	.
=42	=42	=42	=42
1A	1c	2g]	2ee]
.	.	2f#	4dd
.	.	.	4cc
=43	=43	=43	=43
2.G	[1d	[1g	2.b
4A	.	.	4cc
=44	=44	=44	=44
2B	2d]	1g_	2dd
[2c	2c	.	[2ee
=45	=45	=45	=45
4c]	1r	1g]	4ee]
4B	.	.	4dd
2G	.	.	2b
*-	*-	*-	*-
!!!CDT: 1525/^1526/-1594/2/2
!!!OCY: Italia
!!!AGN: Mass (Tenor)
!!!AST: renaissance, vocal
!!!ASW: Antiphon
!!!PWK: Masses, Book I
!!!RNB: Cadence finals: D,C
!!!YOR: Le Opere Complete, v. 1, p. 1
!!!YOO: Rome, Italy: Fratelli Scalera
!!!END: 1992//
!!!EED: John Miller
!!!YEC: Copyright 2000, John Miller
!!!YEN: United States of America
!!!YEM: Rights to all derivative electronic formats reserved.
!!!YEM: Refer to licensing agreement for further details.
!!!YEM: This file must be accompanied by the licensing agreement.
!!!YEM: A copy of the licensing agreement may be found at http://www.music-cog.ohio-state.edu/HumdrumDatabases/Palestrina/license.txt
!!!EMD: converted to Humdrum by Bret Aarden
